src/public/img/about/contributors-numbers.svg

<svg width="280" height="88" viewBox="0 0 280 88" fill="none" xmlns="http://www.w3.org/2000/svg">
<path d="M30.4 86.36C24.88 86.36 19.84 85.28 15.28 83.12C10.72 80.88 7.08 77.92 4.36 74.24C1.72 70.48 0.4 66.28 0.4 61.64C0.4 56.76 1.48 52.6 3.64 49.16C5.88 45.72 9.12 42.88 13.36 40.64C10.08 38.8 7.52 36.48 5.68 33.68C3.84 30.8 2.92 27.6 2.92 24.08C2.92 19.76 4.12 15.88 6.52 12.44C9 9 12.32 6.28 16.48 4.27999C20.64 2.2 25.28 1.16 30.4 1.16C35.44 1.16 40.04 2.2 44.2 4.27999C48.36 6.28 51.68 9 54.16 12.44C56.64 15.88 57.88 19.76 57.88 24.08C57.88 31.28 54.28 36.84 47.08 40.76C51.08 42.76 54.28 45.56 56.68 49.16C59.16 52.76 60.4 56.92 60.4 61.64C60.4 66.28 59.04 70.48 56.32 74.24C53.68 78 50.08 80.96 45.52 83.12C40.96 85.28 35.92 86.36 30.4 86.36ZM30.4 34.64C33.68 34.64 36.4 33.72 38.56 31.88C40.8 30.04 41.92 27.68 41.92 24.8C41.92 21.92 40.8 19.52 38.56 17.6C36.4 15.68 33.68 14.72 30.4 14.72C27.04 14.72 24.24 15.68 22 17.6C19.84 19.52 18.76 21.92 18.76 24.8C18.76 27.68 19.84 30.04 22 31.88C24.24 33.72 27.04 34.64 30.4 34.64ZM30.4 71.96C34.24 71.96 37.4 70.92 39.88 68.84C42.44 66.68 43.72 63.96 43.72 60.68C43.72 57.24 42.44 54.4 39.88 52.16C37.4 49.92 34.24 48.8 30.4 48.8C26.64 48.8 23.48 49.92 20.92 52.16C18.36 54.4 17.08 57.24 17.08 60.68C17.08 63.88 18.36 66.56 20.92 68.72C23.48 70.88 26.64 71.96 30.4 71.96ZM98.6212 86.84C92.6212 86.84 87.1812 85.6 82.3012 83.12C77.4212 80.56 73.3812 76.88 70.1812 72.08L79.5412 61.76C82.9812 65.6 86.1012 68.24 88.9012 69.68C91.7012 71.04 94.7812 71.72 98.1412 71.72C102.541 71.72 106.141 70.4 108.941 67.76C111.821 65.04 113.261 61.72 113.261 57.8C113.261 53.64 111.861 50.2 109.061 47.48C106.261 44.76 102.781 43.4 98.6212 43.4C96.9412 43.4 95.3412 43.52 93.8212 43.76C92.3812 44 90.7412 44.52 88.9012 45.32C87.0612 46.04 84.7412 47.16 81.9412 48.68L74.0212 38.12L79.1812 1.64H126.221V16.64H91.5412L89.2612 31.88C91.1812 31.08 93.2612 30.44 95.5012 29.96C97.7412 29.48 99.9012 29.24 101.981 29.24C107.261 29.24 111.941 30.44 116.021 32.84C120.181 35.24 123.461 38.56 125.861 42.8C128.261 47.04 129.461 51.92 129.461 57.44C129.461 62.96 128.101 67.96 125.381 72.44C122.661 76.84 118.981 80.36 114.341 83C109.701 85.56 104.461 86.84 98.6212 86.84ZM175.019 87.2C167.899 87.2 161.819 85.48 156.779 82.04C151.819 78.6 147.979 73.64 145.259 67.16C142.619 60.68 141.299 52.96 141.299 44C141.299 35.04 142.619 27.32 145.259 20.84C147.979 14.36 151.819 9.4 156.779 5.95999C161.819 2.51999 167.899 0.799995 175.019 0.799995C182.059 0.799995 188.099 2.51999 193.139 5.95999C198.179 9.4 202.019 14.36 204.659 20.84C207.379 27.32 208.739 35.04 208.739 44C208.739 52.96 207.379 60.68 204.659 67.16C202.019 73.64 198.179 78.6 193.139 82.04C188.099 85.48 182.059 87.2 175.019 87.2ZM175.019 72.2C180.459 72.2 184.659 69.76 187.619 64.88C190.659 60 192.179 53.04 192.179 44C192.179 34.88 190.659 27.84 187.619 22.88C184.659 17.84 180.459 15.32 175.019 15.32C169.499 15.32 165.259 17.84 162.299 22.88C159.339 27.84 157.859 34.88 157.859 44C157.859 53.04 159.339 60 162.299 64.88C165.259 69.76 169.499 72.2 175.019 72.2ZM219.678 59V45.32H241.998V22.76H257.238V45.32H279.798V59H257.238V81.2H241.998V59H219.678Z" fill="url(#paint0_linear)"/>
<defs>
<linearGradient id="paint0_linear" x1="140.5" y1="-7" x2="140.5" y2="89" gradientUnits="userSpaceOnUse">
<stop stop-color="#5C667A" stop-opacity="0.4"/>
<stop offset="1" stop-color="#5C667A" stop-opacity="0"/>
</linearGradient>
</defs>
</svg>

<svg xmlns="http://www.w3.org/2000/svg" width="280" height="88" fill="none">
  <path fill="url(#a)" d="M30.4 86.36c-5.52 0-10.56-1.08-15.12-3.24-4.56-2.24-8.2-5.2-10.92-8.88C1.72 70.48.4 66.28.4 61.64c0-4.88 1.08-9.04 3.24-12.48 2.24-3.44 5.48-6.28 9.72-8.52-3.28-1.84-5.84-4.16-7.68-6.96-1.84-2.88-2.76-6.08-2.76-9.6 0-4.32 1.2-8.2 3.6-11.64C9 9 12.32 6.28 16.48 4.28c4.16-2.08 8.8-3.12 13.92-3.12 5.04 0 9.64 1.04 13.8 3.12 4.16 2 7.48 4.72 9.96 8.16 2.48 3.44 3.72 7.32 3.72 11.64 0 7.2-3.6 12.76-10.8 16.68 4 2 7.2 4.8 9.6 8.4 2.48 3.6 3.72 7.76 3.72 12.48 0 4.64-1.36 8.84-4.08 12.6-2.64 3.76-6.24 6.72-10.8 8.88-4.56 2.16-9.6 3.24-15.12 3.24Zm0-51.72c3.28 0 6-.92 8.16-2.76 2.24-1.84 3.36-4.2 3.36-7.08s-1.12-5.28-3.36-7.2c-2.16-1.92-4.88-2.88-8.16-2.88-3.36 0-6.16.96-8.4 2.88-2.16 1.92-3.24 4.32-3.24 7.2s1.08 5.24 3.24 7.08c2.24 1.84 5.04 2.76 8.4 2.76Zm0 37.32c3.84 0 7-1.04 9.48-3.12 2.56-2.16 3.84-4.88 3.84-8.16 0-3.44-1.28-6.28-3.84-8.52-2.48-2.24-5.64-3.36-9.48-3.36-3.76 0-6.92 1.12-9.48 3.36-2.56 2.24-3.84 5.08-3.84 8.52 0 3.2 1.28 5.88 3.84 8.04 2.56 2.16 5.72 3.24 9.48 3.24Zm68.221 14.88c-6 0-11.44-1.24-16.32-3.72-4.88-2.56-8.92-6.24-12.12-11.04l9.36-10.32c3.44 3.84 6.56 6.48 9.36 7.92 2.8 1.36 5.88 2.04 9.24 2.04 4.4 0 8-1.32 10.8-3.96 2.88-2.72 4.32-6.04 4.32-9.96 0-4.16-1.4-7.6-4.2-10.32-2.8-2.72-6.28-4.08-10.44-4.08-1.68 0-3.28.12-4.8.36-1.44.24-3.08.76-4.92 1.56-1.84.72-4.16 1.84-6.96 3.36l-7.92-10.56 5.16-36.48h47.04v15h-34.68l-2.28 15.24c1.92-.8 4-1.44 6.24-1.92s4.4-.72 6.48-.72c5.28 0 9.96 1.2 14.04 3.6 4.16 2.4 7.44 5.72 9.84 9.96 2.4 4.24 3.6 9.12 3.6 14.64 0 5.52-1.36 10.52-4.08 15-2.72 4.4-6.4 7.92-11.04 10.56-4.64 2.56-9.88 3.84-15.72 3.84Zm76.398.36c-7.12 0-13.2-1.72-18.24-5.16-4.96-3.44-8.8-8.4-11.52-14.88-2.64-6.48-3.96-14.2-3.96-23.16s1.32-16.68 3.96-23.16c2.72-6.48 6.56-11.44 11.52-14.88 5.04-3.44 11.12-5.16 18.24-5.16 7.04 0 13.08 1.72 18.12 5.16 5.04 3.44 8.88 8.4 11.52 14.88 2.72 6.48 4.08 14.2 4.08 23.16s-1.36 16.68-4.08 23.16c-2.64 6.48-6.48 11.44-11.52 14.88-5.04 3.44-11.08 5.16-18.12 5.16Zm0-15c5.44 0 9.64-2.44 12.6-7.32 3.04-4.88 4.56-11.84 4.56-20.88 0-9.12-1.52-16.16-4.56-21.12-2.96-5.04-7.16-7.56-12.6-7.56-5.52 0-9.76 2.52-12.72 7.56-2.96 4.96-4.44 12-4.44 21.12 0 9.04 1.48 16 4.44 20.88 2.96 4.88 7.2 7.32 12.72 7.32ZM219.678 59V45.32h22.32V22.76h15.24v22.56h22.56V59h-22.56v22.2h-15.24V59h-22.32Z"/>
  <defs>
    <linearGradient id="a" x1="140.5" x2="140.5" y1="-7" y2="89" gradientUnits="userSpaceOnUse">
      <stop stop-color="#5C667A" stop-opacity=".4"/>
      <stop offset="1" stop-color="#5C667A" stop-opacity="0"/>
    </linearGradient>
  </defs>
</svg>
